packages/components/src/components/icon/common/ic-windows.svg

<svg xmlns="http://www.w3.org/2000/svg" width="40" height="40" fill="none"><path d="M0 6c0-3.3 2.7-6 6-6h28c3.3 0 6 2.7 6 6v28c0 3.3-2.7 6-6 6H6c-3.3 0-6-2.7-6-6V6Z" fill="var(--general-section-1)"/><path d="M32 19.4H18.4V9.5l13.6-2v11.9ZM17.4 9.6v9.8H7.5v-8.3l9.9-1.5Zm0 10.7H7.5v8.4l9.9 1.5v-9.9Zm1 10v-10H32v12l-13.6-2Z" fill="#0078D6"/></svg>

<svg xmlns="http://www.w3.org/2000/svg" width="40" height="40" viewBox="0 0 40 40" fill="none"><path d="M0 6C0 2.7 2.7 0 6 0H34C37.3 0 40 2.7 40 6V34C40 37.3 37.3 40 34 40H6C2.7 40 0 37.3 0 34V6Z" fill="var(--general-section-1)"/><path d="M32 19.4H18.4V9.5L32 7.5V19.4ZM17.4 9.6V19.4H7.5V11.1L17.4 9.6ZM17.4 20.3H7.5V28.7L17.4 30.2V20.3ZM18.4 30.3V20.3H32V32.3L18.4 30.3Z" fill="#0078D6"/></svg>
